X:24
T:Roll Out the Barrel
R:reel
D:Patrick Street 1.
D:Mary MacNamara.
Z:id:hn-reel-24
M:C|
K:Em
E2~E2 BE~E2|B2AF DEFD|E2~E2 BE~E2|1 B2Ac BEED:|2 B2Ac BE~E2||
|:e2 (3gfe bege|d^cdf a2fd|1 e2 (3gfe bege|dBA=c BE~E2:|2 efge fde^c|dBA=c BEED||
<end>
<start>
